**kern	**kern	**fb
*part1	*part1	*part1
*staff2	*staff1	*
*I"Piano	*	*
*clefF4	*clefG2	*
*k[f#c#]	*k[f#c#]	*
=1	=1	=1
4D	8f#L	6 5
.	24ddL	.
.	24cc#	.
.	24bJJ	.
.	4qqa/	6 4
4E	2g#X	.
4EE	.	5 #3
=	=	=
2AA	2a	.
4BB	4r	.
=	=	=
2.C#	16r	.
.	16aaLL	.
.	16gg#X	.
.	16aaJJ	.
.	8ccc#L	.
.	8aaJ	.
.	8eeL	.
.	8cc#J	.
=	=	=
2.D	16r	.
.	16ff#LL	.
.	16ee#X	.
.	16ff#JJ	.
.	8aaL	.
.	8ff#J	.
.	8ddL	.
.	8bJ	.
=	=	=
.	8qqdd/	.
2E	8cc#L	.
.	16eeL	.
.	16aaJJ	.
.	4qqcc#/	.
.	2bT	.
4EE	.	.
=	=	=
4A	2a	.
4B	.	.
4cn	4a	6
=	=	=
2.D#X	4.a	n7 5
.	16bLL	.
.	16ccnJJ	.
.	8r	.
.	8a	.
=	=	=
*-	*-	*-
!!!system-decoration: {(s1,s2)}
